X:1
T:Vesame yabraçame
T:Anonymous
T:Source : Cancionero de Uppsala : Villancicos---Venetia---G.Scotto---1556. Editor : André Vierendeels (10/04/17).
T:Notes : Original clefs : C3, C3 F4 Original note values have been halved Editorial accidentals above the staff Dotted brackets indicate black notes
T:Vesame yabraçame
T:©
T:©
T:©
C:Anonymous
Z:©
%%score [ 1 2 3 ]
L:1/8
Q:1/4=120
M:6/4
K:F
V:1 treble nm="Soprano" snm="S"
V:2 treble nm="Soprano" snm="S"
V:3 treble nm="Alto" snm="A"
V:1
 z2 z2 B2 d4 d2- | d2 c2 B2 c4 A2 | z2 G2 A2 B2 G2 A2 | B2 B4 A4 z2 | z6 z2 z2 c2 | %5
w: Ve- sa- me|* y'a- bra- ça- me,|ma- ri- do, ma- ri-|do mi- o|y|
w: An- dad ma-|* ri- do'a- ler- to,|y te- ned, y te-|ned bri- o,||
 d2 B2 c2 d2 c4 | A4 A2 c2 B4 | G4 A4 G4 | z6 z2 z2 c2 | d2 B2 c2 d2 c4 | A4 A2 c2 B4 | %11
w: da- ros en la- ma-|nya- na, ca- mi-|son lim- pio,|y|da- ros en la ma-|nya- na, ca- mi-|
w: ||||||
 G4 A4 !fermata!G4 || z2 z2 d2 d4 d2- | d2 c2 B2 c4 A2 | c2 B4 G4 A2- | A2 G4 d2 d4 | d4 c2 B2 c4 | %17
w: son lim- pio.|Yo nun- ca|* vi hom- bre bi-|vo'es- tar tan muer-|* to ni ha-|zer el a- dor-|
w: ||||||
 c4 A2 c2 B4 | G4 A4 !fermata!G4 |] %19
w: mi- do'es- tan- do|de- pie- tro.|
w: ||
V:2
 z2 z2 B2 B4 B2- | B2 A2 G2 A4 A2 | z2 G2 F2 G2 G2 F2 | G2 G4 F4 c2 | d2 B2 c2 A2 B2 G2 | %5
w: Ve- sa- me|* y'a- bra- ça- me,|ma- ri- do, ma- ri-|do mi- o, y|da- ros, y da- ros, y|
w: An- dad ma-|* ri- do'a- ler- to,|y te- ned, y te-|ned bri- o, *||
 B2 B2 A2 B2 G4 | F4 F2 G2 F4 |"^#" G4 F4 G2 c2 | d2 B2 c2 A2 B2 G2 | B2 B2 A2 B2 G4 | %10
w: da- ros en la ma-|nya- na, ca- mi-|son lim- pio, y|da- ros, y da- ros, y|da- ros en la ma-|
w: |||||
 F4 F2 G2 F4 |"^#" G4 F4 !fermata!G4 || z2 z2 B2 B4 B2- | B2 A2 G2 A4 F2 |"^#" G2 F4 G4 F2- | %15
w: nya- na, ca- mi-|son lim- pio.|Yo nun- ca|* vi hom- bre bi-|vo'es- tar tan muer-|
w: |||||
 F2 G4 B2 B4 | B4 A2 G2 A4 | A4 F2 G2 F4 |"^#" G4 F4 !fermata!G4 |] %19
w: * to ni ha-|zer el a- dor-|mi- do'es- ran- do|de pie- tro.|
w: ||||
V:3
 z2 z2 B,2 B,4 B,2- | B,2 F2 G2 F4 F2 | z2 E2 D2 G,2 G,2 D2 | G,2 G,4 D4 z2 | z2 z2 C2 D2 B,2 C2 | %5
w: Ve- sa- me|* y'a- bra- ça me,|ma- ri- do, ma- ri-|do mi- o|y da- ros, y|
w: An- dad ma-|* ri- do'a- ler- to,|y te- ned, y te-|ned bri- o,||
 B,2 G,2 F,2 B,2 C4 | D4 D2 C2 D4 | E4 D4 G,4 | z2 z2 C2 D2 B,2 C2 | B,2 G,2 F,2 B,2 C4 | %10
w: da- ros en la ma-|nya- na, ca- mi-|son lim- pio,|y da- ros, y|da- ros en la ma-|
w: |||||
 D4 D2 C2 D4 | E4 D4 !fermata!G,4 || z2 z2 B,2 B,4 B,2- | B,2 F2 G2 F4 F2 | C2 D4 E4 D2- | %15
w: nya- na, ca- mi-|son lim- pio.|Yo nun- ca|* vi hom- bre bi-|vo'es- tar tan muer-|
w: |||||
 D2 G,4 G,2 B,4 | B,4 F2 G2 F4 | F4 F2 C2 D4 | E4 D4 !fermata!G,4 |] %19
w: * to ni ha-|zer el a- dor-|mi- do'es- ran- do|de pie- tro.|
w: ||||

